actions/symbolic/document-revert-symbolic-rtl.svg

<?xml version="1.0" encoding="UTF-8" standalone="no"?>
<svg
   height="16"
   width="16"
   version="1.1"
   id="svg6"
   xml:space="preserve"
   xmlns="http://www.w3.org/2000/svg"
   xmlns:svg="http://www.w3.org/2000/svg"><defs
     id="defs10" /><path
     id="rect322"
     style="opacity:1;fill:#555761;stroke:none;stroke-width:1;stroke-linecap:round;-inkscape-stroke:none;stop-color:#000000"
     d="m 12,1 c 1.107997,0 2,0.8920033 2,2 V 5.4492188 L 13,4.6113281 V 3 C 13,2.4460018 12.553998,2 12,2 H 4 C 3.446003,2 3,2.4460018 3,3 v 10 c 0,0.553997 0.446003,1 1,1 h 8 c 0.553998,0 1,-0.446003 1,-1 V 9.3964844 L 14,8.5585938 V 13 c 0,1.107997 -0.892003,2 -2,2 H 4 C 2.892003,15 2,14.107997 2,13 V 3 C 2,1.8920033 2.892003,1 4,1 Z m -1.431641,3 c 0.0895,0.00455 0.17723,0.033393 0.25,0.091797 l 3.021485,2.5292969 c 0.213361,0.2074498 0.213361,0.5503626 0,0.7578124 L 10.818359,9.9082031 C 10.527277,10.141819 10.011079,9.9024765 10,9.5292969 V 8.0039062 H 9.1679688 C 7.822705,8.0039062 7.0247244,9.1170711 7,10.341797 7,10.526842 7.0098842,11 6.5,11 5.990116,11 6,10.557744 6,10.341797 V 9.2285156 C 5.962372,7.4470959 7.1211747,6 9.3632812,6 H 10 V 4.4707031 C 10.008309,4.1908194 10.29986,3.9863475 10.568359,4 Z" /></svg>

<svg
        xmlns='http://www.w3.org/2000/svg'
        xmlns:svg='http://www.w3.org/2000/svg'
        id='svg6'
        width='16'
        height='16'>
  <path
          id='rect322'
          opacity='1'
          fill='url(#gpa:foreground) #555761'
          fill-opacity='1'
          fill-rule='nonzero'
          stroke='none'
          stroke-width='1'
          stroke-linecap='round'
          d='M 12 1 C 13.108 1, 14 1.892, 14 3 L 14 5.44922 L 13 4.61133 L 13 3 C 13 2.446, 12.554 2, 12 2 L 4 2 C 3.446 2, 3 2.446, 3 3 L 3 13 C 3 13.554, 3.446 14, 4 14 L 12 14 C 12.554 14, 13 13.554, 13 13 L 13 9.39648 L 14 8.55859 L 14 13 C 14 14.108, 13.108 15, 12 15 L 4 15 C 2.892 15, 2 14.108, 2 13 L 2 3 C 2 1.892, 2.892 1, 4 1 Z M 10.5684 4 C 10.6579 4.00455, 10.7456 4.03339, 10.8184 4.0918 L 13.8398 6.62109 C 14.0532 6.82854, 14.0532 7.17146, 13.8398 7.37891 L 10.8184 9.9082 C 10.5273 10.1418, 10.0111 9.90248, 10 9.5293 L 10 8.00391 L 9.16797 8.00391 C 7.8227 8.00391, 7.02472 9.11707, 7 10.3418 C 7 10.5268, 7.00988 11, 6.5 11 C 5.99012 11, 6 10.5577, 6 10.3418 L 6 9.22852 C 5.96237 7.4471, 7.12117 6, 9.36328 6 L 10 6 L 10 4.4707 C 10.0083 4.19082, 10.2999 3.98635, 10.5684 4 Z'
          class="foreground">
  </path>
</svg>
